outputs/icons/action/security_check_round.svg

<svg xmlns="http://www.w3.org/2000/svg" width="1200" height="1200" fill="none"><g clip-path="url(#a)"><path fill="#000" d="m559.5 68-350 155.5c-36 16-59.5 52-59.5 91.5v235c0 277.5 192 537 450 600 258-63 450-322.5 450-600V315c0-39.5-23.5-75.5-59.5-91.5L640.5 68c-25.5-11.5-55.5-11.5-81 0m-95 746.5L335 685c-19.5-19.5-19.5-51 0-70.5s51-19.5 70.5 0l94.5 94 294-294c19.5-19.5 51-19.5 70.5 0s19.5 51 0 70.5L535 814.5c-19 19.5-51 19.5-70.5 0"/></g><defs><clipPath id="a"><path fill="#fff" d="M0 0h1200v1200H0z"/></clipPath></defs></svg>

<svg width="1200" height="1200" viewBox="0 0 1200 1200" fill="none" xmlns="http://www.w3.org/2000/svg"><g clip-path="url(#clip0_223_1887)"><path d="M559.5 68L209.5 223.5C173.5 239.5 150 275.5 150 315V550C150 827.5 342 1087 600 1150C858 1087 1050 827.5 1050 550V315C1050 275.5 1026.5 239.5 990.5 223.5L640.5 68C615 56.5 585 56.5 559.5 68ZM464.5 814.5L335 685C315.5 665.5 315.5 634 335 614.5C354.5 595 386 595 405.5 614.5L500 708.5L794 414.5C813.5 395 845 395 864.5 414.5C884 434 884 465.5 864.5 485L535 814.5C516 834 484 834 464.5 814.5Z" fill="black"/></g><defs><clipPath id="clip0_223_1887"><path width="24" fill="white" d="M0 0H1200V1200H0V0z"/></clipPath></defs></svg>
